X:1
T:Tara Brooch, The
M:4/4
L:1/8
R:Hornpipe
K:C
%%printtempo 0
Q:120
Gf|\
"C"ec ((3cBc) GcEc| ec ((3cBc) GcEc|"F"AF ((3FEF) CFA,F|"G7"GABc defg|
"C"ec ((3cBc) GcEc| ec ((3cBc) GcEc|"F"AF ((3FEF) CFA,F|"G7"GABd "C"c2:|
|:gf|\
"C"((3efe) ce gage|"F"((3fgf) df abag|"C"((3efe) ce "A"agfe|"D7"dcBA "G"GBgf|
"C"((3efe) ce gage|"F"((3fgf) df abag|"C"((3efe) ce "G7"((3ded) Bd|"C"((3cBc) "G7"dB "C"c2:|
